img/ico_close.svg

<svg height="512" viewBox="0 0 512 512" width="512" xmlns="http://www.w3.org/2000/svg"><path d="M74.966 437.013c-99.97-99.97-99.97-262.065 0-362.037 100.002-99.97 262.066-99.97 362.067 0 99.97 99.97 99.97 262.067 0 362.037-100 99.985-262.065 99.985-362.067 0zm316.816-316.786c-75-74.985-196.564-74.985-271.534 0-75 74.985-75 196.55 0 271.535 74.97 74.986 196.533 74.986 271.534 0 74.972-74.987 74.972-196.55 0-271.535zm-203.658 248.91l-45.25-45.266L210.75 256l-67.88-67.876 45.25-45.267 67.88 67.89 67.876-67.89 45.25 45.267L301.25 256l67.88 67.877-45.25 45.267-67.88-67.9-67.876 67.893z"/></svg>

<?xml version="1.0" ?><!DOCTYPE svg  PUBLIC '-//W3C//DTD SVG 1.1//EN'  'http://www.w3.org/Graphics/SVG/1.1/DTD/svg11.dtd'><svg enable-background="new 0 0 512 512" height="512px" id="Layer_1" version="1.1" viewBox="0 0 512 512" width="512px" xml:space="preserve" xmlns="http://www.w3.org/2000/svg" xmlns:xlink="http://www.w3.org/1999/xlink"><path d="M74.966,437.013c-99.97-99.97-99.97-262.065,0-362.037c100.002-99.97,262.066-99.97,362.067,0  c99.971,99.971,99.971,262.067,0,362.037C337.032,536.998,174.968,536.998,74.966,437.013z M391.782,120.227  c-75.001-74.985-196.564-74.985-271.534,0c-75.001,74.985-75.001,196.55,0,271.535c74.97,74.986,196.533,74.986,271.534,0  C466.754,316.775,466.754,195.212,391.782,120.227z M188.124,369.137l-45.251-45.266l67.876-67.877l-67.876-67.876l45.251-45.267  L256,210.743l67.877-67.892l45.25,45.267l-67.876,67.876l67.876,67.877l-45.25,45.266L256,301.245L188.124,369.137z"/></svg>
